icons/mobile/24/svg/bookmark-tray-24.svg

<svg width="24" height="24" viewBox="0 0 24 24" fill="none" xmlns="http://www.w3.org/2000/svg">
<path d="M19.125 16C19.6082 16 20 16.3918 20 16.875V17.3242C19.9999 18.9467 18.8243 20.3228 17.2246 20.5811C15.7031 20.8266 13.9471 21 12 21C10.5235 21 8.73524 20.9 6.72754 20.5723C5.1318 20.3114 4.00007 18.9115 4 17.3271V16.875C4 16.3918 4.39175 16 4.875 16C5.35825 16 5.75 16.3918 5.75 16.875V17.3271C5.75007 18.0864 6.29195 18.7283 7.00977 18.8457C8.91007 19.1559 10.6025 19.25 12 19.25C13.8428 19.25 15.5049 19.086 16.9453 18.8535C17.6994 18.7318 18.2499 18.0855 18.25 17.3242V16.875C18.25 16.3918 18.6418 16 19.125 16Z" fill="black"/>
<path fill-rule="evenodd" clip-rule="evenodd" d="M12 2.00098C12.726 2.001 13.3677 2.43735 13.6367 3.11133L14.6748 5.71777L17.8428 5.92285C18.5437 5.96785 19.1535 6.42597 19.3936 7.08984C19.6336 7.75384 19.467 8.46527 18.957 8.94727C18.7551 9.14023 18.5357 9.33626 18.3027 9.53223C17.6938 10.0441 17.0404 10.509 16.3555 10.917L17.1006 13.8408C17.2776 14.5338 17.0367 15.2349 16.4697 15.6689C15.9087 16.0999 15.1405 16.1556 14.5186 15.8057C14.0817 15.5617 13.6484 15.2918 13.2295 15.0049C12.8087 14.716 12.3968 14.4041 12.001 14.0752C11.605 14.4052 11.1915 14.7169 10.7715 15.0059C10.3527 15.2927 9.91916 15.5628 9.48242 15.8066C9.21055 15.9596 8.90922 16.0361 8.61035 16.0361L8.6084 16.0352C8.22648 16.0352 7.84624 15.9118 7.53027 15.6689C6.96427 15.2349 6.72241 14.5338 6.89941 13.8408L7.64355 10.917C6.95778 10.5091 6.30511 10.0441 5.69629 9.53125C5.46436 9.33631 5.24496 9.14023 5.04102 8.94629C4.53302 8.4653 4.36549 7.75283 4.60547 7.08984C4.84547 6.42684 5.45623 5.96785 6.15723 5.92285L9.3252 5.71777L10.3623 3.1123C10.6323 2.4373 11.274 2.00098 12 2.00098ZM11.7754 4.2959L10.7471 6.87695C10.6221 7.19087 10.3281 7.40468 9.99121 7.42578L6.27051 7.66699C6.42651 7.84699 6.61924 8.01845 6.82324 8.18945C7.51613 8.77231 8.27247 9.28404 9.07031 9.70996C9.42513 9.90003 9.60483 10.3083 9.50586 10.6982L8.5957 14.2695C9.0017 14.0665 9.38923 13.8286 9.78223 13.5596C10.2411 13.2446 10.6884 12.8991 11.1123 12.5322C11.3703 12.3083 11.685 12.1973 12.002 12.1973L12 12.1982C12.316 12.1983 12.6317 12.3102 12.8896 12.5342C13.3135 12.9011 13.7608 13.2466 14.2197 13.5605C14.6127 13.8305 14.999 14.0693 15.373 14.2783L15.0889 13.0303L14.4951 10.6992C14.3951 10.3093 14.5748 9.90098 14.9307 9.71094C15.7285 9.28501 16.4848 8.77331 17.1768 8.19043C17.3818 8.01843 17.573 7.84578 17.752 7.67578L14.0098 7.42578C13.6728 7.40471 13.3789 7.19089 13.2539 6.87695L12.0107 3.75488L11.7754 4.2959Z" fill="black"/>
</svg>

<!-- This Source Code Form is subject to the terms of the Mozilla Public
   - License, v. 2.0. If a copy of the MPL was not distributed with this
   - file, You can obtain one at http://mozilla.org/MPL/2.0/. -->
<svg xmlns="http://www.w3.org/2000/svg" width="24" height="24" fill="none" viewBox="0 0 24 24">
    <path fill="#000" d="M19.125 16c.483 0 .875.392.875.875v.45a3.3 3.3 0 0 1-2.775 3.256 32.8 32.8 0 0 1-10.497-.009C5.132 20.312 4 18.912 4 17.327v-.452a.875.875 0 0 1 1.75 0v.452c0 .76.542 1.401 1.26 1.519a31 31 0 0 0 9.935.008 1.55 1.55 0 0 0 1.305-1.53v-.449c0-.483.392-.875.875-.875" />
    <path fill="#000" fill-rule="evenodd" d="M12 2.001c.726 0 1.368.436 1.637 1.11l1.038 2.607 3.168.205c.7.045 1.31.503 1.55 1.167s.074 1.375-.436 1.857q-.304.291-.654.585c-.61.512-1.263.977-1.948 1.385l.746 2.924a1.73 1.73 0 0 1-.631 1.828 1.78 1.78 0 0 1-1.951.137A16.7 16.7 0 0 1 12 14.076a17 17 0 0 1-2.519 1.73 1.8 1.8 0 0 1-.872.23h-.002c-.382 0-.762-.124-1.078-.367a1.73 1.73 0 0 1-.63-1.828l.744-2.924a14.7 14.7 0 0 1-2.603-1.97 1.72 1.72 0 0 1-.436-1.857 1.78 1.78 0 0 1 1.552-1.167l3.168-.205 1.037-2.606A1.76 1.76 0 0 1 12 2.001m-.225 2.295-1.028 2.58a.87.87 0 0 1-.756.55l-3.72.241c.156.18.348.351.552.522.693.583 1.45 1.095 2.247 1.521.355.19.535.598.436.988l-.91 3.572c.406-.203.793-.441 1.186-.71q.692-.474 1.33-1.028a1.35 1.35 0 0 1 .89-.335l-.002.001c.316 0 .632.112.89.336a15 15 0 0 0 2.483 1.744l-.284-1.248-.594-2.33c-.1-.39.08-.799.436-.99a13 13 0 0 0 2.821-2.034l-3.742-.25a.87.87 0 0 1-.756-.55l-1.244-3.12z" clip-rule="evenodd" />
</svg>
